X:1
T:6 Lieder
T:Im Holz
T:Moritz Hauptmann
T:Nach Klaus Groth
T:Im Holz
T:Op. 47, No. 5
T:CPDL   —   Creative Commons Attribution Non Commercial 3.0
T:CPDL   —   Creative Commons Attribution Non Commercial 3.0
T:CPDL   —   Creative Commons Attribution Non Commercial 3.0
T:CPDL   —   Creative Commons Attribution Non Commercial 3.0
C:Moritz Hauptmann
Z:Nach Klaus Groth
Z:CPDL   —   Creative Commons Attribution Non Commercial 3.0
%%score [ ( 1 2 ) 3 4 ]
L:1/8
Q:1/4=72
M:2/4
K:A
V:1 treble nm="S\nA"
V:2 treble 
V:3 treble-8 nm="T"
V:4 bass nm="B"
V:1
!mf!"^Moderato" A/A/ | .A.A .AA/A/ | A>B cA/A/ | .A.A .AA/A/ | A>B cA/G/ | .F.A .EA/G/ | %6
w: Wo das|E- cho schallt durch die|Bu- chen hin, nach dem|grü- nen Wald zieht mich|Herz und Sinn, wenn die|Dros- sel schlägt, sich das|
 .F.A .EE/A/ | e>d cB/c/ | A z2 ||!mf! A/A/ | .A.A .AA/A/ | A>B cA/A/ | .A.A .AA/A/ | A>B cA/=G/ | %14
w: Laub be- wegt, und der|Wind so fegt drü- ber|hin.|Da ist's|won- nig- lich, da ist's|still und weit, da ist|Raum für mich und für|Freud' und Leid, für die|
 .=F.A .EA/=G/ | .=F.A .E!<(!E/A/!<)! | e>d cB/c/ | A z z ||!p! A/A/ |[K:C] .A.A .AA/A/ | %20
w: bitt'- re Not, die ich|trag' in Gott, o wie|wär der Tod mir 'ne|Freud'.|Wenn die|Dros- sel schlägt, dass es|
 A>B cA/A/ | .A.A .AA/A/ | A>B cA/G/ | .F.A .EA/G/ | .F.A .E!<(!E/A/!<)! | %25
w: wi- der- hallt, wenn das|Laub schon fegt und ich|geh' zum Wald, wandl' ich|träu- mend hin mit be-|trüb- tem Sinn, möcht' wohl|
 e>[Q:1/4=66]"^poco rit."d c"^dim."B/c/ | A z z2 |] %27
w: lie- gen drin stumm und|kalt.|
V:2
 A/A/ | AA GF/F/ | E>D CA/A/ | AA GF/F/ | E>D CE/E/ | DD CE/E/ | FD CE/A/ | c>B AG/E/ | E x2 || %9
 A/A/ | AA GF/F/ | E>D CA/A/ | AA GF/F/ | E>D CE/E/ | DD CE/E/ | =FD CE/A/ | c>B AG/E/ | E x x || %18
 A/A/ |[K:C] AA GF/F/ | E>D CA/A/ | AA GF/F/ | E>D CE/E/ | DD CE/E/ | FD CE/A/ | c>B A^G/E/ | %26
 E x x2 |] %27
V:3
!mf! A/A/ | .A.A .AA/A/ | AE EA/A/ | .A.A .AA/A/ | AE EE/A/ | .A.A .AE/c/ | .A.A .A z | %7
w: Wo das|E- cho schallt durch die|Bu- chen hin, nach dem|grü- nen Wald zieht mich|Herz und Sinn, wenn die|Dros- sel schlägt, sich das|Laub be- wegt,|
 z!<(! E/A/!<)! e>d | c"^dim."B/c/ A || z | z2!mf! AA | AE E z | z2 AA | AE EE/A/ | .A.A .AE/c/ | %15
w: und der Wind so|fegt drü- ber hin.||Da ist's|won- nig- lich,|da ist|Raum für mich, für die|bitt'- re Not, die ich|
 .A.A .A z | z!<(! E/A/!<)! e>d | cB/c/ A || z |[K:C] z2!p! AA | AE E z | z2 AA | AE EE/A/ | %23
w: trag' in Gott,|o wie wär der|Tod mir 'ne Freud'.||Wenn die|Dros- sel schlägt,|wenn das|Laub schon fegt, wandl' ich|
 .A.A .AE/c/ | .A.A .A z | z!<(! E/A/!<)! e>d | c"^dim."B/c/ A z |] %27
w: träu- mend hin mit be-|trüb- tem Sinn,|möcht wohl lie- gen|drin stumm und kalt.|
V:4
!mf! A,/A,/ | .G,.F, .E,D,/D,/ | C,>B,, A,,A,/A,/ | .G,.F, .E,D,/D,/ | C,>B,, A,,C,/C,/ | %5
w: |||||
 .D,.F, .A,C,/A,,/ | .D,.F, .A,!<(!C/A,/!<)! | .E,.E, .E,.E, | A,"^dim."E,/E,/ A,, ||!mf! A,/A,/ | %10
w: |* * * und der|Wind so fegt, so|fegt drü- ber hin.|Da ist's|
 .G,.F, .E,D,/D,/ | C,>B,, A,,A,/A,/ | G,F, E,D,/D,/ | C,>B,, A,,C,/C,/ | .D,.=F, .A,C,/A,,/ | %15
w: won- nig- lich, da ist's|still und weit, da ist|Raum für mich und für|Freud' und Leid, für die|bitt'- re Not, die ich|
 .D,.=F, .A,!<(!C/A,/!<)! | E,E, E,E, | A,E,/E,/ A,, ||!p! A,/A,/ |[K:C] G,F, E,D,/D,/ | %20
w: trag' in Gott, o wie|wär der Tod, der|Tod mir 'ne Freud'.|Wenn die|Dros- sel schlägt, dass es|
 C,>B,, A,,A,/A,/ | G,F, E,D,/D,/ | C,>B,, A,,C,/C,/ | .D,.F, .A,C,/A,,/ | %24
w: wi- der- hallt, wenn das|Laub schon fegt und ich|geh' zum Wald, wandl' ich|träu- mend hin mit be-|
 .D,.F, .A,!<(!C/A,/!<)! | E,E, E,E,/E,/ | A,"^dim."E,/E,/ A,, z |] %27
w: trüb- tem Sinn, möcht' wohl|lie- gen drin, lie- gen|drin stumm und kalt.|

